src/activities/ballcatch/ballcatch.svg

<?xml version="1.0" encoding="UTF-8" standalone="no"?>
<!-- Created with Inkscape (http://www.inkscape.org/) -->

<svg
   xmlns:dc="http://purl.org/dc/elements/1.1/"
   xmlns:cc="http://creativecommons.org/ns#"
   xmlns:rdf="http://www.w3.org/1999/02/22-rdf-syntax-ns#"
   xmlns:svg="http://www.w3.org/2000/svg"
   xmlns="http://www.w3.org/2000/svg"
   xmlns:sodipodi="http://sodipodi.sourceforge.net/DTD/sodipodi-0.dtd"
   xmlns:inkscape="http://www.inkscape.org/namespaces/inkscape"
   width="100"
   height="100"
   id="svg31200"
   sodipodi:version="0.32"
   inkscape:version="0.91 r13725"
   version="1.0"
   sodipodi:docname="ballcatch.svg">
  <defs
     id="defs31202" />
  <sodipodi:namedview
     id="base"
     pagecolor="#ffffff"
     bordercolor="#666666"
     borderopacity="1.0"
     inkscape:pageopacity="0.0"
     inkscape:pageshadow="2"
     inkscape:zoom="5.1351447"
     inkscape:cx="5.0609974"
     inkscape:cy="53.34472"
     inkscape:document-units="px"
     inkscape:current-layer="layer1"
     height="100px"
     width="100px"
     inkscape:window-width="1880"
     inkscape:window-height="1060"
     inkscape:window-x="-3"
     inkscape:window-y="-3"
     showgrid="false"
     inkscape:window-maximized="1" />
  <metadata
     id="metadata31205">
    <rdf:RDF>
      <cc:Work
         rdf:about="">
        <dc:format>image/svg+xml</dc:format>
        <dc:type
           rdf:resource="http://purl.org/dc/dcmitype/StillImage" />
        <dc:title></dc:title>
        <dc:date>2015</dc:date>
        <dc:creator>
          <cc:Agent>
            <dc:title>Timothée Giet</dc:title>
          </cc:Agent>
        </dc:creator>
        <cc:license
           rdf:resource="http://creativecommons.org/licenses/by-sa/4.0/" />
      </cc:Work>
      <cc:License
         rdf:about="http://creativecommons.org/licenses/by-sa/4.0/">
        <cc:permits
           rdf:resource="http://creativecommons.org/ns#Reproduction" />
        <cc:permits
           rdf:resource="http://creativecommons.org/ns#Distribution" />
        <cc:requires
           rdf:resource="http://creativecommons.org/ns#Notice" />
        <cc:requires
           rdf:resource="http://creativecommons.org/ns#Attribution" />
        <cc:permits
           rdf:resource="http://creativecommons.org/ns#DerivativeWorks" />
        <cc:requires
           rdf:resource="http://creativecommons.org/ns#ShareAlike" />
      </cc:License>
    </rdf:RDF>
  </metadata>
  <g
     inkscape:label="Calque 1"
     inkscape:groupmode="layer"
     id="layer1">
    <ellipse
       clip-path="none"
       id="path4940"
       style="color:#000000;display:inline;overflow:visible;visibility:visible;fill:#3cb2f1;fill-opacity:1;fill-rule:nonzero;stroke:none;stroke-width:0.5;marker:none;enable-background:accumulate"
       cx="49.999969"
       cy="49.901814"
       mask="none"
       rx="44.99955"
       ry="44.901619" />
    <path
       inkscape:connector-curvature="0"
       style="color:#000000;display:inline;overflow:visible;visibility:visible;fill:#3c69f1;fill-opacity:1;fill-rule:nonzero;stroke:none;stroke-width:0.5;marker:none;enable-background:accumulate"
       clip-path="none"
       d="m 41.772703,9.850234 c -5.288379,-0.06294 -10.71429,0.673404 -16.148814,2.313897 A 44.999548,44.901617 0 0 0 5,49.902086 44.999548,44.901617 0 0 0 10.773184,71.794056 C 11.9017,44.931263 40.94952,17.958402 66.329273,16.180737 58.917607,12.245433 50.537007,9.954543 41.772703,9.850234 Z m 24.55657,6.330503 C 81.408156,24.187015 92.464095,39.021082 94.493012,56.24438 A 44.999548,44.901617 0 0 0 95,49.902086 44.999548,44.901617 0 0 0 82.839079,19.252486 C 77.783177,16.699393 72.154482,15.772724 66.329273,16.180737 Z"
       id="path4785" />
    <path
       inkscape:connector-curvature="0"
       style="color:#000000;display:inline;overflow:visible;visibility:visible;fill:#3c9af1;fill-opacity:1;fill-rule:nonzero;stroke:none;stroke-width:0.5;marker:none;enable-background:accumulate"
       clip-path="none"
       d="m 50.162736,5.19684 c -8.983892,0 -17.352381,2.628218 -24.377058,7.154298 C 40.29702,7.979753 54.747049,10.094711 66.660691,16.48289 65.173834,12.69531 63.276511,9.319157 60.966401,6.502902 57.504962,5.651628 53.887555,5.19684 50.162736,5.19684 Z M 66.660691,16.48289 C 76.046163,40.391093 69.321847,80.369524 50.176521,95 72.736011,94.992933 91.414463,78.421369 94.661635,56.812298 92.756855,39.507669 81.74541,24.571405 66.660691,16.48289 Z"
       id="path4785-0" />
    <path
       style="color:#000000;display:inline;overflow:visible;visibility:visible;fill:#2a2a2a;fill-opacity:0.50232562;fill-rule:nonzero;stroke:none;stroke-width:0.5;marker:none;enable-background:accumulate"
       clip-path="none"
       d="M 49.999967,5 C 25.14703,4.9997469 4.9996836,25.103248 5,49.902086 5.0002461,74.700519 25.147451,94.80342 49.999967,94.803167 74.852499,94.80342 94.999698,74.700519 95,49.902086 95.000252,25.103242 74.852903,4.9997434 49.999967,5 Z m 0,1.565891 C 73.428242,6.565944 93.4306,26.524812 93.430653,49.902086 93.4306,73.279362 73.428242,92.230352 49.999967,92.230401 26.571701,92.230352 6.56934,73.279362 6.5693049,49.902086 c 0,-23.377284 20.0023961,-43.33616 43.4306621,-43.336195 z"
       id="path4940-1"
       inkscape:connector-curvature="0"
       sodipodi:nodetypes="cscscsssss" />
  </g>
</svg>

<!--Created with Inkscape (http://www.inkscape.org/)--><svg xmlns:dc="http://purl.org/dc/elements/1.1/" xmlns:cc="http://creativecommons.org/ns#" xmlns:rdf="http://www.w3.org/1999/02/22-rdf-syntax-ns#" xmlns="http://www.w3.org/2000/svg" xmlns:sodipodi="http://sodipodi.sourceforge.net/DTD/sodipodi-0.dtd" xmlns:inkscape="http://www.inkscape.org/namespaces/inkscape" width="100" height="100" sodipodi:version="0.32" inkscape:version="0.91 r13725" version="1.0" sodipodi:docname="ballcatch.svg"><sodipodi:namedview pagecolor="#ffffff" bordercolor="#666666" borderopacity="1.0" inkscape:pageopacity="0.0" inkscape:pageshadow="2" inkscape:zoom="5.1351447" inkscape:cx="5.0609974" inkscape:cy="53.34472" inkscape:document-units="px" inkscape:current-layer="layer1" height="100px" width="100px" inkscape:window-width="1880" inkscape:window-height="1060" inkscape:window-x="-3" inkscape:window-y="-3" showgrid="false" inkscape:window-maximized="1"/><metadata><rdf:RDF><cc:Work><dc:format>image/svg+xml</dc:format><dc:type rdf:resource="http://purl.org/dc/dcmitype/StillImage"/><dc:title/><dc:date>2015</dc:date><dc:creator><cc:Agent><dc:title>Timothée Giet</dc:title></cc:Agent></dc:creator><cc:license rdf:resource="http://creativecommons.org/licenses/by-sa/4.0/"/></cc:Work><cc:License rdf:about="http://creativecommons.org/licenses/by-sa/4.0/"><cc:permits rdf:resource="http://creativecommons.org/ns#Reproduction"/><cc:permits rdf:resource="http://creativecommons.org/ns#Distribution"/><cc:requires rdf:resource="http://creativecommons.org/ns#Notice"/><cc:requires rdf:resource="http://creativecommons.org/ns#Attribution"/><cc:permits rdf:resource="http://creativecommons.org/ns#DerivativeWorks"/><cc:requires rdf:resource="http://creativecommons.org/ns#ShareAlike"/></cc:License></rdf:RDF></metadata><g inkscape:label="Calque 1" inkscape:groupmode="layer"><ellipse style="color:#000;display:inline;overflow:visible;visibility:visible;fill:#3cb2f1;fill-opacity:1;fill-rule:nonzero;stroke:none;stroke-width:.5;marker:none;enable-background:accumulate" cx="49.999969" cy="49.901814" rx="44.99955" ry="44.901619"/><path inkscape:connector-curvature="0" style="color:#000;display:inline;overflow:visible;visibility:visible;fill:#3c69f1;fill-opacity:1;fill-rule:nonzero;stroke:none;stroke-width:.5;marker:none;enable-background:accumulate" d="M41.773 9.85c-5.289-.063-10.715.674-16.15 2.314A45 44.902 0 0 0 5 49.902a45 44.902 0 0 0 5.773 21.892C11.902 44.931 40.95 17.958 66.33 16.181c-7.411-3.936-15.792-6.226-24.556-6.33zm24.556 6.33c15.08 8.007 26.135 22.841 28.164 40.064A45 44.902 0 0 0 95 49.902a45 44.902 0 0 0-12.16-30.65c-5.057-2.553-10.686-3.48-16.51-3.071z"/><path inkscape:connector-curvature="0" style="color:#000;display:inline;overflow:visible;visibility:visible;fill:#3c9af1;fill-opacity:1;fill-rule:nonzero;stroke:none;stroke-width:.5;marker:none;enable-background:accumulate" d="M50.163 5.197a44.859 44.859 0 0 0-24.377 7.154c14.511-4.371 28.961-2.256 40.875 4.132-1.487-3.788-3.384-7.164-5.695-9.98a45.184 45.184 0 0 0-10.803-1.306zM66.66 16.483C76.046 40.39 69.32 80.37 50.177 95c22.559-.007 41.237-16.579 44.485-38.188-1.905-17.304-12.917-32.24-28.001-40.33z"/><path style="color:#000;display:inline;overflow:visible;visibility:visible;fill:#2a2a2a;fill-opacity:.50232562;fill-rule:nonzero;stroke:none;stroke-width:.5;marker:none;enable-background:accumulate" d="M50 5C25.147 5 5 25.103 5 49.902s20.147 44.901 45 44.901c24.852 0 45-20.102 45-44.9C95 25.102 74.853 5 50 5zm0 1.566c23.428 0 43.43 19.959 43.43 43.336S73.429 92.23 50 92.23 6.57 73.28 6.57 49.902C6.57 26.525 26.571 6.566 50 6.566z" inkscape:connector-curvature="0" sodipodi:nodetypes="cscscsssss"/></g></svg>
